X: 186
%
U:~=!turn!
T: Flowers of Edinburgh
C:
O:Scotland
B:Keith Norman MacDonald : "The Skye collection of the best reels & strathspeys extant" : 1887
Z:Ralph Palmer
N:Country Dance
R:Reel
M:C
L:1/8
K:G
(GE) | (D3 E) {/F}G3 A | BGdG cBAG | FGFE (DE)FG | AFdF TE3 F | (D3 E) {/G}G3 A |
TBGBd (ef)ge | {/^c}d=cBA {/F}GFGA | TB2 {/F}G2 G2 :: d | {/f}gfga g{ga}bag | fdfg (fa)gf |
{gf}ed(ef) {/f}gfed | TB2 e>f (ef){/f}ge | {/^c}dB{/F}GB B/=c/d cB | egfa {/f}g2 (fe) | {/^c}d=cBA {/F}GFGA | TB2 {/F}G2 G2 z :|


